src/standard/volumetric-flask.svg

<svg xmlns="http://www.w3.org/2000/svg" viewBox="0 0 36 36">
  <path d="M22.52 17.86a2.3 2.3 0 0 1-.9-1.85V5.62H22a.62.62 0 0 0 0-1.24h-1a.62.62 0 0 0-.62.62v11c-.13 2.13 1.82 2.89 2.85 4.37H12.77c1-1.5 3-2.2 2.85-4.38V5a.62.62 0 0 0-.62-.62h-1a.62.62 0 0 0 0 1.24h.38V16a2.27 2.27 0 0 1-.87 1.84 7.62 7.62 0 0 0 4.62 13.78c7.19-.14 10.24-9.49 4.39-13.76Zm-4.41 12.51c-4.41.27-7.81-4.73-6-8.75H23.9a6.42 6.42 0 0 1-5.79 8.75Z"/>
  <path d="M17 4.62a.62.62 0 0 0 .62-.62.62.62 0 0 0-1.24 0 .62.62 0 0 0 .62.62Zm2 7.01a.63.63 0 1 0-.63-.63.63.63 0 0 0 .63.63Zm-2 7a.63.63 0 1 0-.62-.62.62.62 0 0 0 .62.62Z"/>
</svg>

<svg id="a012c8fa-9081-43a3-9a0c-c8490da9d3ff" data-name="Icon" xmlns="http://www.w3.org/2000/svg" viewBox="0 0 36 36">
  <title>Volumetric flask icon - Black</title>
<desc>science, chemistry, measure, liquid measurement, science and nature</desc>
<metadata><?xpacket begin="﻿" id="W5M0MpCehiHzreSzNTczkc9d"?>
<x:xmpmeta xmlns:x="adobe:ns:meta/" x:xmptk="Adobe XMP Core 8.0-c001 1.000000, 0000/00/00-00:00:00        ">
   <rdf:RDF xmlns:rdf="http://www.w3.org/1999/02/22-rdf-syntax-ns#">
      <rdf:Description rdf:about=""
            xmlns:xmp="http://ns.adobe.com/xap/1.0/"
            xmlns:dc="http://purl.org/dc/elements/1.1/"
            xmlns:cq="http://www.day.com/jcr/cq/1.0"
            xmlns:tiff="http://ns.adobe.com/tiff/1.0/">
         <xmp:rhcc-effective-on>2023-12-08T17:41:33.569Z</xmp:rhcc-effective-on>
         <xmp:rhcc-metadata-complete-moderator>pending</xmp:rhcc-metadata-complete-moderator>
         <xmp:rhcc-translation-id>TRAd38e5eda-64de-44c0-9725-dc9aa14d4a25</xmp:rhcc-translation-id>
         <xmp:brand-content-type>Icon</xmp:brand-content-type>
         <xmp:CreateDate>2023-12-08T17:41:33.569Z</xmp:CreateDate>
         <xmp:rhcc-effective-on-set-on-upload>true</xmp:rhcc-effective-on-set-on-upload>
         <xmp:rhcc-metadata-complete-uploader>pending</xmp:rhcc-metadata-complete-uploader>
         <xmp:rhcc-file-last-modified>2023-12-08T17:42:21.498Z</xmp:rhcc-file-last-modified>
         <xmp:rhcc-audience>rhcc-audience:internal</xmp:rhcc-audience>
         <xmp:rhcc-rights-restricted>no</xmp:rhcc-rights-restricted>
         <xmp:brand-content-subtype>Icon</xmp:brand-content-subtype>
         <xmp:rhcc-derivative-id>DERd38e5eda-64de-44c0-9725-dc9aa14d4a25</xmp:rhcc-derivative-id>
         <xmp:brand-logo-color>Black</xmp:brand-logo-color>
         <xmp:rhcc-notify-portal-subscribers-on-change>yes</xmp:rhcc-notify-portal-subscribers-on-change>
         <dc:format>image/svg+xml</dc:format>
         <dc:modified>2024-02-09T20:27:08.676Z</dc:modified>
         <dc:title>
            <rdf:Alt>
               <rdf:li xml:lang="x-default">Volumetric flask icon - Black</rdf:li>
            </rdf:Alt>
         </dc:title>
         <dc:description>
            <rdf:Alt>
               <rdf:li xml:lang="x-default">science, chemistry, measure, liquid measurement, science and nature</rdf:li>
            </rdf:Alt>
         </dc:description>
         <cq:lastReplicationAction_scene7>Activate</cq:lastReplicationAction_scene7>
         <cq:lastReplicationAction_publish>Activate</cq:lastReplicationAction_publish>
         <cq:lastReplicated_publish>2024-02-09T22:13:08.597Z</cq:lastReplicated_publish>
         <cq:lastReplicatedBy>workflow-process-service</cq:lastReplicatedBy>
         <cq:lastReplicationAction>Activate</cq:lastReplicationAction>
         <cq:lastReplicatedBy_publish>workflow-process-service</cq:lastReplicatedBy_publish>
         <cq:isDelivered>true</cq:isDelivered>
         <cq:lastReplicated>2024-02-09T22:13:08.597Z</cq:lastReplicated>
         <cq:lastReplicatedBy_scene7>workflow-process-service</cq:lastReplicatedBy_scene7>
         <cq:lastReplicated_scene7>2024-02-09T22:13:08.597Z</cq:lastReplicated_scene7>
         <tiff:ImageLength>36</tiff:ImageLength>
         <tiff:ImageWidth>36</tiff:ImageWidth>
      </rdf:Description>
   </rdf:RDF>
</x:xmpmeta>
                                                                                                    
                                                                                                    
                                                                                                    
                                                                                                    
                                                                                                    
                                                                                                    
                                                                                                    
                                                                                                    
                                                                                                    
                                                                                                    
                                 
<?xpacket end="w"?></metadata>
<g>
    <path d="M22.52,17.86a2.3,2.3,0,0,1-.9-1.85V5.62H22a.62.62,0,0,0,0-1.24H21a.62.62,0,0,0-.62.62V16c-.13,2.13,1.82,2.89,2.85,4.37H12.77c1-1.5,3-2.2,2.85-4.38V5A.62.62,0,0,0,15,4.38H14a.62.62,0,0,0,0,1.24h.38V16a2.27,2.27,0,0,1-.87,1.84,7.62,7.62,0,0,0,4.62,13.78C25.32,31.48,28.37,22.13,22.52,17.86ZM18.11,30.37c-4.41.27-7.81-4.73-6-8.75H23.9A6.42,6.42,0,0,1,18.11,30.37Z"/>
    <path d="M17,4.62A.62.62,0,0,0,17.62,4a.62.62,0,0,0-1.24,0A.62.62,0,0,0,17,4.62Z"/>
    <path d="M19,11.63a.63.63,0,1,0-.63-.63A.63.63,0,0,0,19,11.63Z"/>
    <path d="M17,18.63a.63.63,0,1,0-.62-.62A.62.62,0,0,0,17,18.63Z"/>
  </g>
</svg>
